usr/share/icons/biglinux-icons-material-dark/symbolic/status/network-cellular-hardware-disabled-rtl-symbolic.svg

<svg width="16px" height="16px" version="1.1" viewBox="0 0 16 16" xmlns="http://www.w3.org/2000/svg">
 <path d="m4 2v5h-1v-4h-1v4h-1v-5zm4 3v2h-1v-1h-1v1h-1v-2zm8 6v3h-3v-3zm-4 0v3h-3v-3h1v2h1v-2zm-4 0v3h-3v-3h1v2h1v-2zm-4 0v3h-3v-3h1v2h1v-2zm11 1h-1v1h1z" fill="#dedede"/>
 <rect transform="scale(-1,1)" x="-16" y="8" width="16" height="2" rx="0" ry="0" fill="#dedede" stroke-linecap="round" stroke-linejoin="round" stroke-width="1.5261" style="paint-order:stroke fill markers"/>
</svg>

<svg xmlns="http://www.w3.org/2000/svg" width="16" height="16">
<path fill="#363636" d="M4 2v5H3V3H2v4H1V2zm4 3v2H7V6H6v1H5V5zm8 6v3h-3v-3zm-4 0v3H9v-3h1v2h1v-2zm-4 0v3H5v-3h1v2h1v-2zm-4 0v3H1v-3h1v2h1v-2zm11 1h-1v1h1z"/>
<rect width="16" height="2" x="-16" y="8" fill="#363636" rx="0" ry="0" style="paint-order:stroke fill markers" transform="scale(-1 1)"/>
</svg>
